icons/device-mobile-outline.svg

<svg xmlns="http://www.w3.org/2000/svg" width="24" height="24" viewBox="0 0 24 24">
  <path d="M16,2 C17.6568542,2 19,3.34314575 19,5 L19,5 L19,19 C19,20.6568542 17.6568542,22 16,22 L16,22 L8,22 C6.34314575,22 5,20.6568542 5,19 L5,19 L5,5 C5,3.34314575 6.34314575,2 8,2 L8,2 Z M16,4 L8,4 C7.44771525,4 7,4.44771525 7,5 L7,5 L7,19 C7,19.5522847 7.44771525,20 8,20 L8,20 L16,20 C16.5522847,20 17,19.5522847 17,19 L17,19 L17,5 C17,4.44771525 16.5522847,4 16,4 L16,4 Z M12,16 C12.5522847,16 13,16.4477153 13,17 C13,17.5522847 12.5522847,18 12,18 C11.4477153,18 11,17.5522847 11,17 C11,16.4477153 11.4477153,16 12,16 Z"/>
</svg>

<svg xmlns="http://www.w3.org/2000/svg" viewBox="0 0 24 24">
  <path d="M16 2a3 3 0 0 1 3 3v14a3 3 0 0 1-3 3H8a3 3 0 0 1-3-3V5a3 3 0 0 1 3-3zm0 2H8a1 1 0 0 0-1 1v14a1 1 0 0 0 1 1h8a1 1 0 0 0 1-1V5a1 1 0 0 0-1-1zm-4 12a1 1 0 1 1 0 2 1 1 0 0 1 0-2z"/>
</svg>
